img/fb-mobile.svg

<svg width="50" height="50" viewBox="0 0 50 50" fill="none" xmlns="http://www.w3.org/2000/svg">
<path d="M25 0C11.25 0 0 11.2475 0 25.1003C0 37.6254 9.14999 48.0212 21.1 49.8999V32.3648H14.75V25.1003H21.1V19.5642C21.1 13.2766 24.825 9.81967 30.55 9.81967C33.275 9.81967 36.125 10.2956 36.125 10.2956V16.483H32.975C29.875 16.483 28.9 18.4119 28.9 20.3908V25.1003H35.85L34.725 32.3648H28.9V49.8999C34.7911 48.9677 40.1555 45.9558 44.0248 41.4081C47.8941 36.8603 50.0133 31.0763 49.9999 25.1003C49.9999 11.2475 38.75 0 25 0Z" fill="#CACACA"/>
</svg>

<svg width="50" height="50" fill="none" xmlns="http://www.w3.org/2000/svg"><path d="M25 0C11.25 0 0 11.248 0 25.1c0 12.525 9.15 22.921 21.1 24.8V32.365h-6.35V25.1h6.35v-5.536c0-6.287 3.725-9.744 9.45-9.744 2.725 0 5.575.476 5.575.476v6.187h-3.15c-3.1 0-4.075 1.929-4.075 3.908v4.71h6.95l-1.125 7.264H28.9V49.9a24.987 24.987 0 0015.125-8.492A25.08 25.08 0 0050 25.1C50 11.247 38.75 0 25 0z" fill="#CACACA"/></svg>
